**kern
*part1
*staff1
*clefC1
*k[b-e-]
1%0r
=2
1%0r
=3
1%0r
=4
1%0r
=5
1%0r
=6
2r
8r
8d
8g
8g
=7
16g
16gL
16f#
16enJ
4f#y
8r
8d
8b-y
8b-y
=8
16b-y
16b-yL
16a
16gJ
4a
8r
8d
8dd
8dd
=9
16dd
16ddL
16ccJ
16b-y
[4cc
8cc]
=-
*-
